symbols/web/add_location/materialsymbolsoutlined/add_location_wght100gradN25fill1_48px.svg

<svg xmlns="http://www.w3.org/2000/svg" height="48" width="48"><path d="M23.5 26.5h1.1v-6h6v-1.1h-6v-6h-1.1v6h-6v1.1h6Zm.5 16.45q-7.4-6.65-11.025-12.375T9.35 20.4q0-6.9 4.425-11.025T24 5.25q5.8 0 10.275 4.125Q38.75 13.5 38.75 20.4q0 4.45-3.65 10.175Q31.45 36.3 24 42.95Z"/></svg>

<svg xmlns="http://www.w3.org/2000/svg" height="48" width="48"><path d="M23.5 26.5H24.6V20.5H30.6V19.4H24.6V13.4H23.5V19.4H17.5V20.5H23.5ZM24 42.95Q16.6 36.3 12.975 30.575Q9.35 24.85 9.35 20.4Q9.35 13.5 13.775 9.375Q18.2 5.25 24 5.25Q29.8 5.25 34.275 9.375Q38.75 13.5 38.75 20.4Q38.75 24.85 35.1 30.575Q31.45 36.3 24 42.95Z"/></svg>
